X:541
T:Reel 541
M:4/4
K:Dmaj
L:1/8
FG|A>D (3DCD A,>D (3DCD |ADDC D2EG|A>D (3DDD A,>D (3FED |GECE DGFG|A>D (3DDD A,>D (3DCD |EDCD CEFG|ADFD A,DCD|EDCE =cAG2|AG|FGFE D2FD|ECA,C A,CEG|F>D (3DDD D2FD|ECA,B, CA,EC|F>D (3DDD D2DC|A,DDD EFGE|FAGE DCDE| (3FGF GA EDD2|
